X: 201
T: Harry Schaefer's Mazurka No 1
B: australian dance tunes
M:3/4
L:1/8
Q: 1/4=100
K:G
V:1 
gd|:d2 d2 GB|d2 d2 ec|A2 A2 GB|d2 d2 gd|B2 B2 GB|d2 d2 ec|A2 Ac BA|G2 G2
 DG|!
B2 B2 AG|FE D2 FG|A2 Ac BA|G2 G2 DG|B2 B2 AG|FE D2 FG|A2 A2 BA| G6:||
% abcbook-tune_id 62a0785032096bf4c325d2f0


% abcbook-boost 0
% abcbook-tablature 
% abcbook-transpose 
% abcbook-lastupdated 1654683750306
% abcbook-soundfonts 
% abcbook-repeats 1


